ix/timer_bulk.svg

<svg viewBox="0 0 24 24" fill="none" xmlns="http://www.w3.org/2000/svg" height="1em" width="1em">
  <path opacity="0.4" d="M18.3495 19.68C17.7995 21.09 16.4595 22 14.9495 22H9.04949C7.52949 22 6.19949 21.09 5.64949 19.68C5.09949 18.26 5.47949 16.69 6.59949 15.67L10.6495 12H13.3595L17.3995 15.67C18.5195 16.69 18.8895 18.26 18.3495 19.68Z" fill="#292D32"/>
  <path d="M13.82 18.14H10.18C9.8 18.14 9.5 17.83 9.5 17.46C9.5 17.08 9.81 16.78 10.18 16.78H13.82C14.2 16.78 14.5 17.09 14.5 17.46C14.5 17.83 14.19 18.14 13.82 18.14Z" fill="#292D32"/>
  <path d="M18.3506 4.32C17.8006 2.91 16.4606 2 14.9506 2H9.05065C7.54065 2 6.20065 2.91 5.65065 4.32C5.11065 5.74 5.48065 7.31 6.61065 8.33L10.6506 12H13.3606L17.4006 8.33C18.5206 7.31 18.8906 5.74 18.3506 4.32ZM13.8206 7.23H10.1806C9.80065 7.23 9.50065 6.92 9.50065 6.55C9.50065 6.18 9.81065 5.87 10.1806 5.87H13.8206C14.2006 5.87 14.5006 6.18 14.5006 6.55C14.5006 6.92 14.1906 7.23 13.8206 7.23Z" fill="#292D32"/>
</svg>

<svg viewBox="0 0 24 24" fill="none" xmlns="http://www.w3.org/2000/svg" height="1em" width="1em">
  <path opacity=".4" d="M18.35 19.68a3.63 3.63 0 0 1-3.4 2.32h-5.9a3.62 3.62 0 0 1-3.4-2.32c-.55-1.42-.17-2.99.95-4.01L10.65 12h2.71l4.04 3.67a3.635 3.635 0 0 1 .95 4.01Z" fill="#292D32"/>
  <path d="M13.82 18.14h-3.64a.68.68 0 0 1 0-1.36h3.64c.38 0 .68.31.68.68 0 .37-.31.68-.68.68Zm4.53-13.82A3.63 3.63 0 0 0 14.95 2h-5.9a3.63 3.63 0 0 0-2.44 6.33L10.65 12h2.71l4.04-3.67a3.635 3.635 0 0 0 .95-4.01Zm-4.53 2.91h-3.64a.68.68 0 0 1-.68-.68c0-.37.31-.68.68-.68h3.64c.38 0 .68.31.68.68 0 .37-.31.68-.68.68Z" fill="#292D32"/>
</svg>
